X:1
T:If He's Good Enough For Lindy
M:4/4
L:1/4
K:C
 G| E E E D| C4| F F F E| D4| F F2 E| D D E F/2F/2| G G2 F| E3 z| G G/2G/2 G/2G/2 G|\
 c c2 c/2B/2| A A2 A| c c c c| B/2B/2 B2 B| B G2 G| G G A B| c3||
